.local/share/icons/Gruvbox-Plus-Dark/actions/16/view-financial-account-credit-card.svg

<svg width="16" height="16" version="1.1" xmlns="http://www.w3.org/2000/svg">
  <defs>
    <style id="current-color-scheme" type="text/css">.ColorScheme-Text { color:#ebdbb2; } .ColorScheme-Highlight { color:#458588; }</style>
  </defs>
  <path class="ColorScheme-Text" d="m1 2c-0.554 0-1 0.446-1 1v1h16v-1c0-0.554-0.446-1-1-1h-14zm-1 4v6c0 0.554 0.446 1 1 1h14c0.554 0 1-0.446 1-1v-6h-16zm1 5h4v1h-4v-1zm5 0h2v1h-2v-1z" fill="currentColor"/>
</svg>

<svg xmlns="http://www.w3.org/2000/svg" width="16" height="16" version="1.1">
 <defs>
  <style id="current-color-scheme" type="text/css">
   .ColorScheme-Text { color:#565656; } .ColorScheme-Highlight { color:#4285f4; } .ColorScheme-NeutralText { color:#ff9800; } .ColorScheme-PositiveText { color:#4caf50; } .ColorScheme-NegativeText { color:#f44336; }
  </style>
 </defs>
 <path style="fill:currentColor" class="ColorScheme-Text" d="M 1 2 C 0.446 2 0 2.446 0 3 L 0 4 L 16 4 L 16 3 C 16 2.446 15.554 2 15 2 L 1 2 z M 0 6 L 0 12 C 0 12.554 0.446 13 1 13 L 15 13 C 15.554 13 16 12.554 16 12 L 16 6 L 0 6 z M 1 11 L 5 11 L 5 12 L 1 12 L 1 11 z M 6 11 L 8 11 L 8 12 L 6 12 L 6 11 z"/>
</svg>
